papirus/48x48/apps/lollypop.svg

<?xml version="1.0" encoding="UTF-8" standalone="no"?>
<!-- Created with Inkscape (http://www.inkscape.org/) -->

<svg
   xmlns:dc="http://purl.org/dc/elements/1.1/"
   xmlns:cc="http://creativecommons.org/ns#"
   xmlns:rdf="http://www.w3.org/1999/02/22-rdf-syntax-ns#"
   xmlns:svg="http://www.w3.org/2000/svg"
   xmlns="http://www.w3.org/2000/svg"
   xmlns:sodipodi="http://sodipodi.sourceforge.net/DTD/sodipodi-0.dtd"
   xmlns:inkscape="http://www.inkscape.org/namespaces/inkscape"
   width="48"
   height="48"
   viewBox="0 0 48 48.000001"
   id="svg4450"
   version="1.1"
   inkscape:version="0.91 r13725"
   sodipodi:docname="lollypop.svg">
  <defs
     id="defs4452" />
  <sodipodi:namedview
     id="base"
     pagecolor="#b3b3b3"
     bordercolor="#666666"
     borderopacity="1.0"
     inkscape:pageopacity="0"
     inkscape:pageshadow="2"
     inkscape:zoom="1"
     inkscape:cx="22.007005"
     inkscape:cy="14.730032"
     inkscape:document-units="px"
     inkscape:current-layer="layer1"
     showgrid="false"
     units="px"
     inkscape:window-width="1535"
     inkscape:window-height="876"
     inkscape:window-x="65"
     inkscape:window-y="24"
     inkscape:window-maximized="1"
     showborder="false" />
  <metadata
     id="metadata4455">
    <rdf:RDF>
      <cc:Work
         rdf:about="">
        <dc:format>image/svg+xml</dc:format>
        <dc:type
           rdf:resource="http://purl.org/dc/dcmitype/StillImage" />
        <dc:title></dc:title>
      </cc:Work>
    </rdf:RDF>
  </metadata>
  <g
     inkscape:label="Layer 1"
     inkscape:groupmode="layer"
     id="layer1"
     transform="translate(0,-1004.3622)">
    <ellipse
       style="opacity:1;fill:#fa4b8c;fill-opacity:1;stroke:none;stroke-width:1.00148869;stroke-opacity:1"
       id="path5128"
       cx="24"
       cy="1028.3624"
       rx="20"
       ry="19.999804" />
    <path
       style="opacity:0.2;fill:#000000;fill-opacity:1;stroke:none;stroke-opacity:1"
       d="M 20.199219 5.4003906 C 19.686251 5.4943906 19.17785 5.6100406 18.673828 5.7441406 C 18.032197 5.9221406 17.397992 6.1318469 16.777344 6.3730469 C 16.156787 6.6143469 15.550403 6.8855 14.957031 7.1875 C 14.363727 7.4895 13.784801 7.8219406 13.224609 8.1816406 C 12.664283 8.5415406 12.123159 8.9277969 11.601562 9.3417969 C 11.080003 9.7555969 10.579209 10.196356 10.101562 10.660156 C 10.040173 10.725156 9.9784767 10.789569 9.9179688 10.855469 C 10.316716 13.592269 12.351512 16.925928 14.494141 19.486328 A 11 11 0 0 0 13 25 A 11 11 0 0 0 13.048828 25.960938 C 9.9165541 24.345937 6.6271892 21.672206 5.1484375 18.503906 C 5.0747675 18.696406 5.0032159 18.889284 4.9355469 19.083984 C 4.7388249 19.719984 4.5755984 20.364978 4.4433594 21.017578 C 4.3110384 21.669978 4.2110583 22.329788 4.1445312 22.992188 C 4.0781113 23.654687 4.0448619 24.318575 4.0449219 24.984375 C 4.044894 25.162079 4.0579586 25.339708 4.0625 25.517578 A 20 19.999804 0 0 0 5.0175781 30.220703 C 7.5822484 31.131989 11.308695 31.037979 14.480469 30.484375 A 11 11 0 0 0 19.378906 34.96875 C 16.656592 36.718377 13.097543 38.118692 9.8359375 38.103516 A 20 19.999804 0 0 0 19.654297 43.505859 C 21.464861 41.663138 23.010272 38.724168 24.007812 36 A 11 11 0 0 0 30.339844 33.972656 C 30.489575 37.066917 29.989646 40.681307 28.505859 43.460938 A 20 19.999804 0 0 0 37.945312 38.333984 C 37.319291 35.758573 35.475412 32.800308 33.529297 30.476562 A 11 11 0 0 0 35 25 A 11 11 0 0 0 34.945312 23.992188 C 37.962011 25.54045 41.11357 28.078464 42.675781 31.091797 A 20 19.999804 0 0 0 43.970703 24.587891 C 43.964303 24.249162 43.959476 23.910374 43.935547 23.572266 C 43.888357 22.908066 43.808579 22.247997 43.695312 21.591797 C 43.590373 21.000997 43.45847 20.414938 43.300781 19.835938 C 40.178794 18.723337 36.407123 18.972381 33.503906 19.488281 A 11 11 0 0 0 28.611328 15.027344 C 31.578923 13.110744 35.558581 11.582719 39.056641 11.886719 C 38.825266 11.608319 38.586003 11.337666 38.339844 11.072266 C 37.875958 10.594666 37.390109 10.139837 36.880859 9.7109375 C 36.371649 9.2819375 35.8405 8.8799062 35.291016 8.5039062 C 34.741497 8.1280062 34.174148 7.7781844 33.589844 7.4589844 C 33.005531 7.1397844 32.404282 6.8510969 31.791016 6.5917969 C 31.177687 6.3324969 30.552168 6.10295 29.916016 5.90625 C 29.677532 5.84025 29.438023 5.7793562 29.197266 5.7226562 C 27.027916 7.4376563 25.158794 10.866 24.013672 14 A 11 11 0 0 0 24 14 A 11 11 0 0 0 17.689453 16.005859 C 17.517483 12.479359 18.187195 8.2740906 20.199219 5.4003906 z "
       transform="translate(0,1004.3622)"
       id="path5072" />
    <path
       style="opacity:1;fill:#ffffff;fill-opacity:1;stroke:none;stroke-opacity:1"
       d="M 20.199219 4.4003906 C 19.686251 4.4943906 19.17785 4.6100406 18.673828 4.7441406 C 18.032197 4.9221406 17.397992 5.1318469 16.777344 5.3730469 C 16.156787 5.6143469 15.550403 5.8855 14.957031 6.1875 C 14.363727 6.4895 13.784801 6.8219406 13.224609 7.1816406 C 12.664283 7.5415406 12.123158 7.9277969 11.601562 8.3417969 C 11.080002 8.7555969 10.579208 9.1963563 10.101562 9.6601562 C 10.040173 9.7251563 9.9784768 9.7895687 9.9179688 9.8554688 C 10.316716 12.592293 12.351512 15.925924 14.494141 18.486328 A 11 11 0 0 0 13 24 A 11 11 0 0 0 13.048828 24.960938 C 9.916554 23.345893 6.6271892 20.672234 5.1484375 17.503906 C 5.0747675 17.696406 5.0032159 17.889284 4.9355469 18.083984 C 4.7388249 18.719984 4.5755984 19.364978 4.4433594 20.017578 C 4.3110384 20.669978 4.2110582 21.329787 4.1445312 21.992188 C 4.0781113 22.654687 4.0448619 23.318575 4.0449219 23.984375 C 4.0448479 24.455675 4.06048 24.928337 4.09375 25.398438 C 4.14094 26.062637 4.2226725 26.722706 4.3359375 27.378906 C 4.4405215 27.967006 4.5716526 28.550553 4.7285156 29.126953 C 7.2955808 30.149568 11.192412 30.058332 14.480469 29.484375 A 11 11 0 0 0 19.378906 33.96875 C 16.415463 35.873277 12.45517 37.3866 8.9726562 37.083984 C 9.2040312 37.362284 9.4432941 37.633038 9.6894531 37.898438 C 10.153337 38.376037 10.641142 38.830866 11.150391 39.259766 C 11.659601 39.688666 12.188796 40.090897 12.738281 40.466797 C 13.2878 40.842797 13.857103 41.192519 14.441406 41.511719 C 15.025719 41.830919 15.625018 42.119606 16.238281 42.378906 C 16.851611 42.638206 17.477131 42.867753 18.113281 43.064453 C 18.353761 43.130453 18.5951 43.190947 18.837891 43.248047 C 20.999256 41.538275 22.863018 38.126291 24.007812 35 A 11 11 0 0 0 30.339844 32.972656 C 30.510419 36.497591 29.840604 40.698696 27.830078 43.570312 C 28.343044 43.476312 28.853401 43.360662 29.357422 43.226562 C 29.999053 43.048462 30.631305 42.838856 31.251953 42.597656 C 31.872511 42.356456 32.480846 42.085203 33.074219 41.783203 C 33.667521 41.481203 34.244495 41.148762 34.804688 40.789062 C 35.365012 40.429263 35.906138 40.042906 36.427734 39.628906 C 36.949294 39.215106 37.450089 38.774347 37.927734 38.310547 C 37.989124 38.245547 38.050821 38.181034 38.111328 38.115234 C 37.712159 35.375493 35.674446 32.038023 33.529297 29.476562 A 11 11 0 0 0 35 24 A 11 11 0 0 0 34.945312 22.992188 C 38.088147 24.605204 41.39654 27.286541 42.880859 30.466797 C 42.954519 30.274297 43.026081 30.081419 43.09375 29.886719 C 43.290471 29.250619 43.455652 28.605625 43.587891 27.953125 C 43.720211 27.300725 43.81824 26.640916 43.884766 25.978516 C 43.951186 25.315916 43.984435 24.650275 43.984375 23.984375 C 43.984449 23.513075 43.968817 23.042366 43.935547 22.572266 C 43.888357 21.908066 43.808578 21.247997 43.695312 20.591797 C 43.590372 20.000997 43.45847 19.414937 43.300781 18.835938 C 40.178794 17.723289 36.407123 17.972364 33.503906 18.488281 A 11 11 0 0 0 28.611328 14.027344 C 31.578923 12.11073 35.558581 10.582752 39.056641 10.886719 C 38.825266 10.608319 38.586003 10.337666 38.339844 10.072266 C 37.875958 9.5946656 37.390109 9.1398375 36.880859 8.7109375 C 36.371649 8.2819375 35.8405 7.8799062 35.291016 7.5039062 C 34.741497 7.1280062 34.174148 6.7781844 33.589844 6.4589844 C 33.005531 6.1397844 32.404282 5.8510969 31.791016 5.5917969 C 31.177687 5.3324969 30.552168 5.10295 29.916016 4.90625 C 29.677532 4.84025 29.438023 4.7793562 29.197266 4.7226562 C 27.027916 6.4375738 25.158794 9.8659719 24.013672 13 A 11 11 0 0 0 24 13 A 11 11 0 0 0 17.689453 15.005859 C 17.517483 11.47932 18.187195 7.2741453 20.199219 4.4003906 z "
       transform="translate(0,1004.3622)"
       id="circle5142" />
    <path
       style="color:#000000;font-style:normal;font-variant:normal;font-weight:normal;font-stretch:normal;font-size:medium;line-height:normal;font-family:sans-serif;text-indent:0;text-align:start;text-decoration:none;text-decoration-line:none;text-decoration-style:solid;text-decoration-color:#000000;letter-spacing:normal;word-spacing:normal;text-transform:none;direction:ltr;block-progression:tb;writing-mode:lr-tb;baseline-shift:baseline;text-anchor:start;white-space:normal;clip-rule:nonzero;display:inline;overflow:visible;visibility:visible;opacity:1;isolation:auto;mix-blend-mode:normal;color-interpolation:sRGB;color-interpolation-filters:linearRGB;solid-color:#000000;solid-opacity:1;fill:#fa4b8c;fill-opacity:1;fill-rule:nonzero;stroke:none;stroke-width:1;stroke-linecap:round;stroke-linejoin:round;stroke-miterlimit:4;stroke-dasharray:none;stroke-dashoffset:0;stroke-opacity:1;color-rendering:auto;image-rendering:auto;shape-rendering:auto;text-rendering:auto;enable-background:accumulate"
       d="m 20.634296,1022.3624 c -0.347811,-0.01 -0.634185,0.2869 -0.634296,0.6546 l 0,5.3446 0,5.3447 c -4e-6,0.5041 0.516432,0.8192 0.929655,0.5672 l 4.380141,-2.6723 4.380444,-2.6723 c 0.413013,-0.2522 0.413013,-0.8821 0,-1.1342 l -4.380444,-2.6724 -4.380141,-2.6723 c -0.08995,-0.055 -0.191514,-0.085 -0.295359,-0.088 z"
       id="path6015"
       inkscape:connector-curvature="0"
       sodipodi:nodetypes="ccccccccccc" />
    <path
       style="opacity:0.2;fill:#ffffff;fill-opacity:1;stroke:none;stroke-width:1.00148869;stroke-opacity:1"
       d="m 24,1008.3622 a 20,19.999804 0 0 0 -20,20 20,19.999804 0 0 0 0.02148,0.582 20,19.999804 0 0 1 19.97852,-19.582 20,19.999804 0 0 1 19.978516,19.418 20,19.999804 0 0 0 0.02148,-0.418 20,19.999804 0 0 0 -20,-20 z"
       id="ellipse4425"
       inkscape:connector-curvature="0" />
    <path
       style="opacity:0.3;fill:#000000;fill-opacity:1;stroke:none;stroke-width:1.00148869;stroke-opacity:1"
       d="M 43.978516,1027.7802 A 20,19.999804 0 0 1 24,1047.3622 20,19.999804 0 0 1 4.021484,1027.9442 20,19.999804 0 0 0 4,1028.3622 a 20,19.999804 0 0 0 20,20 20,19.999804 0 0 0 20,-20 20,19.999804 0 0 0 -0.02148,-0.582 z"
       id="ellipse4433"
       inkscape:connector-curvature="0" />
  </g>
</svg>

<?xml version="1.0" encoding="UTF-8" standalone="no"?>
<svg id="svg4450" xmlns:rdf="http://www.w3.org/1999/02/22-rdf-syntax-ns#" xmlns="http://www.w3.org/2000/svg" viewBox="0 0 48 48.000001" width="48" version="1.1" xmlns:cc="http://creativecommons.org/ns#" height="48" xmlns:dc="http://purl.org/dc/elements/1.1/">
 <metadata id="metadata4455">
  <rdf:RDF>
   <cc:Work rdf:about="">
    <dc:format>image/svg+xml</dc:format>
    <dc:type rdf:resource="http://purl.org/dc/dcmitype/StillImage"/>
    <dc:title/>
   </cc:Work>
  </rdf:RDF>
 </metadata>
 <g id="layer1" transform="translate(0 -1004.4)">
  <ellipse id="path5128" rx="20" ry="20" cy="1028.4" cx="24" fill="#fa4b8c"/>
  <path id="path5072" opacity=".2" d="m20.199 5.4004c-0.513 0.094-1.021 0.2096-1.525 0.3437-0.642 0.178-1.276 0.3877-1.897 0.6289-0.62 0.2413-1.227 0.5125-1.82 0.8145s-1.172 0.6344-1.732 0.9941c-0.561 0.3599-1.102 0.7462-1.623 1.1602-0.522 0.4138-1.023 0.8542-1.5 1.3182-0.062 0.065-0.1235 0.13-0.184 0.195 0.399 2.737 2.434 6.071 4.576 8.631a11 11 0 0 0 -1.494 5.514 11 11 0 0 0 0.049 0.961c-3.1324-1.615-6.4218-4.289-7.9006-7.457-0.0736 0.192-0.1452 0.385-0.2129 0.58-0.1967 0.636-0.3599 1.281-0.4921 1.934-0.1324 0.652-0.2323 1.312-0.2989 1.974-0.0664 0.663-0.0996 1.327-0.0996 1.992 0 0.178 0.0131 0.356 0.0176 0.534a20 20 0 0 0 0.9551 4.703c2.5646 0.911 6.2914 0.817 9.4624 0.263a11 11 0 0 0 4.899 4.485c-2.722 1.749-6.281 3.15-9.5431 3.135a20 20 0 0 0 9.8181 5.402c1.811-1.843 3.356-4.782 4.354-7.506a11 11 0 0 0 6.332 -2.027c0.15 3.094-0.35 6.708-1.834 9.488a20 20 0 0 0 9.439 -5.127c-0.626-2.575-2.47-5.534-4.416-7.857a11 11 0 0 0 1.471 -5.477 11 11 0 0 0 -0.055 -1.008c3.017 1.548 6.169 4.086 7.731 7.1a20 20 0 0 0 1.295 -6.504c-0.007-0.339-0.012-0.678-0.035-1.016-0.048-0.664-0.127-1.324-0.241-1.98-0.105-0.591-0.237-1.177-0.394-1.756-3.122-1.113-6.894-0.864-9.797-0.348a11 11 0 0 0 -4.893 -4.461c2.968-1.916 6.948-3.444 10.446-3.14-0.232-0.279-0.471-0.549-0.717-0.815-0.464-0.477-0.95-0.932-1.459-1.3611-0.509-0.429-1.041-0.831-1.59-1.207-0.55-0.3759-1.117-0.7257-1.701-1.0449s-1.186-0.6079-1.799-0.8672-1.239-0.4888-1.875-0.6856c-0.238-0.066-0.478-0.1268-0.719-0.1835-2.169 1.715-4.038 5.1433-5.183 8.2773a11 11 0 0 0 -0.014 0 11 11 0 0 0 -6.311 2.006c-0.172-3.527 0.498-7.7319 2.51-10.606z" transform="translate(0 1004.4)"/>
  <path id="circle5142" d="m20.199 4.4004c-0.513 0.094-1.021 0.2096-1.525 0.3437-0.642 0.178-1.276 0.3877-1.897 0.6289-0.62 0.2413-1.227 0.5125-1.82 0.8145s-1.172 0.6344-1.732 0.9941c-0.561 0.3599-1.102 0.7462-1.623 1.1602-0.522 0.4138-1.023 0.8546-1.5 1.3184-0.062 0.065-0.1235 0.1294-0.184 0.1953 0.399 2.7365 2.434 6.0705 4.576 8.6305a11 11 0 0 0 -1.494 5.514 11 11 0 0 0 0.049 0.961c-3.1324-1.615-6.4218-4.289-7.9006-7.457-0.0736 0.192-0.1452 0.385-0.2129 0.58-0.1967 0.636-0.3599 1.281-0.4921 1.934-0.1324 0.652-0.2323 1.312-0.2989 1.974-0.0664 0.663-0.0996 1.327-0.0996 1.992-0.0001 0.472 0.0156 0.944 0.0489 1.414 0.0471 0.665 0.1289 1.325 0.2421 1.981 0.1046 0.588 0.2358 1.172 0.3926 1.748 2.5671 1.023 6.4635 0.931 9.7515 0.357a11 11 0 0 0 4.899 4.485c-2.964 1.904-6.924 3.418-10.406 3.115 0.231 0.278 0.4703 0.549 0.7165 0.814 0.4635 0.478 0.9515 0.933 1.4605 1.362 0.51 0.429 1.039 0.831 1.588 1.207 0.55 0.376 1.119 0.726 1.703 1.045 0.585 0.319 1.184 0.608 1.797 0.867 0.614 0.259 1.239 0.489 1.875 0.685 0.241 0.066 0.482 0.127 0.725 0.184 2.161-1.71 4.025-5.122 5.17-8.248a11 11 0 0 0 6.332 -2.027c0.17 3.525-0.499 7.726-2.51 10.597 0.513-0.094 1.023-0.209 1.527-0.343 0.642-0.179 1.274-0.388 1.895-0.629 0.621-0.242 1.229-0.513 1.822-0.815 0.594-0.302 1.17-0.634 1.731-0.994 0.56-0.36 1.101-0.746 1.623-1.16 0.521-0.414 1.022-0.855 1.5-1.318 0.061-0.065 0.123-0.13 0.183-0.196-0.399-2.74-2.437-6.077-4.582-8.638a11 11 0 0 0 1.471 -5.477 11 11 0 0 0 -0.055 -1.008c3.143 1.613 6.452 4.295 7.936 7.475 0.074-0.193 0.145-0.386 0.213-0.58 0.196-0.636 0.362-1.281 0.494-1.934 0.132-0.652 0.23-1.312 0.297-1.974 0.066-0.663 0.099-1.329 0.099-1.995 0-0.471-0.015-0.942-0.048-1.412-0.048-0.664-0.127-1.324-0.241-1.98-0.105-0.591-0.237-1.177-0.394-1.756-3.122-1.113-6.894-0.864-9.797-0.348a11 11 0 0 0 -4.893 -4.461c2.968-1.916 6.948-3.444 10.446-3.14-0.232-0.279-0.471-0.549-0.717-0.815-0.464-0.4773-0.95-0.9322-1.459-1.3611-0.509-0.429-1.041-0.831-1.59-1.207-0.55-0.3759-1.117-0.7257-1.701-1.0449s-1.186-0.6079-1.799-0.8672-1.239-0.4888-1.875-0.6856c-0.238-0.066-0.478-0.1268-0.719-0.1835-2.169 1.7149-4.038 5.1433-5.183 8.2773a11 11 0 0 0 -0.014 0 11 11 0 0 0 -6.311 2.006c-0.172-3.527 0.498-7.7319 2.51-10.606z" transform="translate(0 1004.4)" fill="#fff"/>
  <path id="path6015" style="color-rendering:auto;text-decoration-color:#000000;color:#000000;isolation:auto;mix-blend-mode:normal;shape-rendering:auto;solid-color:#000000;block-progression:tb;text-decoration-line:none;text-decoration-style:solid;image-rendering:auto;white-space:normal;text-indent:0;text-transform:none" d="m20.634 1022.4c-0.34781-0.01-0.63418 0.2869-0.6343 0.6546v5.3446 5.3447c-0.000004 0.5041 0.51643 0.8192 0.92966 0.5672l4.3801-2.6723 4.3804-2.6723c0.41301-0.2522 0.41301-0.8821 0-1.1342l-4.3804-2.6724-4.3801-2.6723c-0.08995-0.055-0.19151-0.085-0.29536-0.088z" fill="#fa4b8c"/>
  <path id="ellipse4425" opacity=".2" d="m24 1008.4a20 20 0 0 0 -20 20 20 20 0 0 0 0.02148 0.582 20 20 0 0 1 19.979 -19.582 20 20 0 0 1 19.979 19.418 20 20 0 0 0 0.02148 -0.418 20 20 0 0 0 -20 -20z" fill="#fff"/>
  <path id="ellipse4433" opacity=".2" d="m43.979 1028.8a20 20 0 0 1 -19.979 19.6 20 20 0 0 1 -19.978 -19.5 20 20 0 0 0 -0.022 0.5 20 20 0 0 0 20 20 20 20 0 0 0 20 -20 20 20 0 0 0 -0.02148 -0.582z"/>
 </g>
</svg>
